packages/icons/src/components/Logo/assets/light/plesk.svg

<svg width="20" height="20" viewBox="0 0 20 20" fill="none" xmlns="http://www.w3.org/2000/svg">
<path d="M0.606495 14.1501H0V7.79862C0.482331 7.64581 0.988539 7.56462 1.49952 7.55985C1.82904 7.55507 2.15855 7.61238 2.46896 7.72699C2.74594 7.82728 3.00382 7.98487 3.21872 8.19022C3.42884 8.39079 3.59121 8.62957 3.69628 8.90178C3.81089 9.18353 3.86342 9.48917 3.86342 9.7948C3.86342 10.1864 3.79656 10.5207 3.66285 10.8024C3.53868 11.0699 3.35721 11.3039 3.13276 11.4949C2.91309 11.6764 2.65998 11.8101 2.383 11.8913C2.10602 11.9772 1.81471 12.0202 1.5234 12.0202C1.36581 12.0202 1.21299 12.0107 1.06017 11.9868C0.907355 11.9629 0.754537 11.9295 0.606495 11.8913V14.1501ZM3.17097 9.78048C3.17097 9.27427 3.0277 8.86357 2.74594 8.54839C2.46418 8.23797 2.06304 8.08038 1.55205 8.08038C1.38969 8.08038 1.23209 8.08993 1.06972 8.10903C0.91213 8.12814 0.754537 8.16634 0.606495 8.21887V11.3182C0.749761 11.366 0.893028 11.4042 1.04107 11.4376C1.18434 11.471 1.3276 11.4853 1.47564 11.4853C1.99618 11.4853 2.40688 11.3373 2.71251 11.0412C3.01815 10.7499 3.17097 10.3297 3.17097 9.78048Z" fill="black"/>
<path d="M5.08594 11.9771V5.8501H5.69721V11.9724H5.08594V11.9771Z" fill="black"/>
<path d="M10.7068 11.3373C10.511 11.5522 10.2674 11.7241 9.99999 11.8387C9.73256 11.9533 9.40782 12.0107 9.03055 12.0107C8.71537 12.0154 8.40018 11.9581 8.10887 11.8292C7.85577 11.7193 7.63132 11.5522 7.45462 11.3421C7.27793 11.1367 7.14421 10.898 7.06303 10.6401C6.97229 10.3726 6.92931 10.0909 6.92931 9.80913C6.91976 9.47006 6.97707 9.12622 7.08691 8.80626C7.17764 8.54361 7.32568 8.30483 7.5167 8.09948C7.6934 7.91801 7.9083 7.77474 8.14708 7.68401C8.39063 7.59327 8.64851 7.55029 8.90639 7.55029C9.54631 7.55029 10.0334 7.74609 10.3582 8.14246C10.6829 8.53406 10.8405 9.10712 10.8309 9.86166H7.55013C7.56924 10.3583 7.7125 10.7499 7.97993 11.0412C8.24736 11.3325 8.61508 11.4806 9.07353 11.4806C9.31231 11.4853 9.55109 11.4424 9.77554 11.3516C9.99522 11.2609 10.1862 11.1224 10.3438 10.9457L10.7068 11.3373ZM10.2149 9.35067C10.2149 9.17876 10.1862 9.00684 10.1337 8.84447C10.0812 8.69643 10.0048 8.55793 9.8997 8.44332C9.78987 8.32393 9.65138 8.2332 9.50333 8.17589C9.13562 8.04217 8.72969 8.04217 8.36198 8.17589C8.21871 8.2332 8.085 8.31916 7.97993 8.43377C7.87487 8.55316 7.78891 8.68687 7.72205 8.83014C7.64087 8.99251 7.59311 9.1692 7.56924 9.35067H10.2149Z" fill="black"/>
<path d="M14.8377 8.63436C14.7039 8.45766 14.5368 8.31439 14.341 8.20933C14.1452 8.11382 13.9255 8.06607 13.7106 8.07562C13.4002 8.07562 13.1805 8.13292 13.0564 8.24276C12.9322 8.34782 12.8654 8.50064 12.8701 8.66301C12.8654 8.76807 12.8988 8.87313 12.9561 8.95909C13.0182 9.04505 13.0946 9.11669 13.1853 9.16922C13.2904 9.2313 13.4002 9.28383 13.5148 9.32204C13.639 9.36502 13.7679 9.40799 13.9064 9.45097C14.0736 9.50351 14.2359 9.56081 14.4031 9.62289C14.5654 9.6802 14.7183 9.76139 14.8568 9.86167C14.9905 9.95718 15.1051 10.0813 15.191 10.2246C15.2818 10.387 15.3248 10.5732 15.32 10.7643C15.3248 10.9505 15.277 11.132 15.191 11.2991C15.1051 11.4567 14.9857 11.5904 14.8424 11.6955C14.6848 11.8101 14.5081 11.8913 14.3219 11.939C13.8061 12.0728 13.2569 12.0441 12.7603 11.8531C12.469 11.7241 12.2063 11.5283 12.001 11.2896L12.4785 10.8693C12.7985 11.28 13.2092 11.4806 13.7154 11.4806C14.0449 11.4806 14.2885 11.4185 14.4508 11.2943C14.6084 11.1702 14.6896 11.0221 14.6896 10.8502C14.6944 10.7308 14.6657 10.6162 14.6037 10.5111C14.5416 10.4156 14.4604 10.3392 14.3649 10.2771C14.255 10.2103 14.1404 10.153 14.0163 10.1148C13.8825 10.0718 13.7441 10.0288 13.6008 9.98584C13.4336 9.93808 13.2713 9.88555 13.1089 9.82824C12.9561 9.77571 12.808 9.6993 12.6743 9.60379C12.5454 9.51306 12.4356 9.39367 12.3591 9.25995C12.2732 9.09758 12.2302 8.91134 12.235 8.72509C12.235 8.33827 12.3735 8.04219 12.6552 7.83206C12.937 7.62194 13.2999 7.51688 13.7488 7.51688C14.0401 7.5121 14.3267 7.56941 14.5941 7.67925C14.8424 7.78431 15.0764 7.97055 15.3057 8.23321L14.8568 8.64391L14.8377 8.63436Z" fill="black"/>
<path d="M16.4613 11.9769V5.85938H17.0726V11.9769H16.4613ZM17.0774 9.71802L19.1786 7.59767H20L17.8462 9.69892L19.9904 11.9721H19.1404L17.0774 9.71802Z" fill="black"/>
<path d="M7.21584 14.1501H3.52911V13.5723H7.21584V14.1501Z" fill="#53BCE6"/>
</svg>

<svg xmlns="http://www.w3.org/2000/svg" width="20" height="20" fill="none" viewBox="0 0 20 20">
    <path fill="#000" d="M.606 14.15H0V7.8a5.1 5.1 0 0 1 1.5-.24c.329-.004.659.053.969.168.277.1.535.258.75.463.21.2.372.44.477.712.115.282.167.587.167.893q0 .586-.2 1.007a2 2 0 0 1-.53.693c-.22.181-.473.315-.75.396a2.9 2.9 0 0 1-.86.13q-.235.001-.463-.034a5 5 0 0 1-.454-.096zm2.565-4.37q-.001-.759-.425-1.232c-.282-.31-.683-.468-1.194-.468q-.241 0-.482.029-.239.03-.464.11v3.1q.215.07.435.119.214.048.435.047.778 0 1.237-.444.458-.436.458-1.26m1.915 2.196V5.85h.611v6.122h-.611zm5.621-.64c-.196.215-.44.387-.707.502q-.402.172-.97.172a2.2 2.2 0 0 1-.921-.182 1.8 1.8 0 0 1-.654-.487 2 2 0 0 1-.392-.702 2.6 2.6 0 0 1-.134-.83c-.01-.34.048-.684.158-1.004a2 2 0 0 1 .43-.707c.176-.181.391-.324.63-.415.244-.09.502-.134.76-.134q.962-.001 1.451.592.487.588.473 1.72H7.55q.028.743.429 1.18c.267.29.635.439 1.094.439.238.004.477-.039.702-.13.22-.09.41-.229.568-.405zm-.492-1.986c0-.172-.029-.344-.081-.507a1.2 1.2 0 0 0-.234-.4 1.06 1.06 0 0 0-.397-.268 1.67 1.67 0 0 0-1.141 0 1.04 1.04 0 0 0-.382.258q-.157.18-.258.396c-.081.163-.129.34-.153.52zm4.623-.717q-.202-.266-.497-.425a1.3 1.3 0 0 0-.63-.133q-.466.001-.655.167a.53.53 0 0 0-.186.42.5.5 0 0 0 .086.296.7.7 0 0 0 .23.21q.156.095.329.153.185.064.391.129c.168.053.33.11.497.172q.244.087.454.239c.134.095.248.22.334.363.09.162.134.348.129.54.005.185-.043.367-.129.534a1.2 1.2 0 0 1-.349.396 1.5 1.5 0 0 1-.52.244 2.57 2.57 0 0 1-1.562-.086 2.2 2.2 0 0 1-.759-.563l.478-.42c.32.41.73.61 1.236.61q.494 0 .736-.186.237-.186.239-.444a.6.6 0 0 0-.086-.339.8.8 0 0 0-.24-.234 1.6 1.6 0 0 0-.348-.162 22 22 0 0 0-.415-.13q-.25-.071-.492-.157a1.7 1.7 0 0 1-.435-.224 1.1 1.1 0 0 1-.315-.344 1.1 1.1 0 0 1-.124-.535q0-.58.42-.893.422-.315 1.094-.315c.291-.005.578.052.845.162.248.105.482.292.712.554l-.45.41zm1.623 3.343V5.859h.612v6.118zm.616-2.259 2.102-2.12H20l-2.154 2.1 2.144 2.274h-.85z"/>
    <path fill="#53bce6" d="M7.216 14.15H3.529v-.578h3.687z"/>
</svg>
